!!!!SEGMENT: pl-kk--kk-i-7--045-002_luython-carl--missa-et-in-terra.krn
!!!cenid: 16xx:845
!!!COM: Luython, Carl
!!!COM-rismID: pe30012976
!!!CDT: ~1557-1620
!!!CNT:
!!!OPR: Missa
!!!OTL: Et in terra
!!!OMV: 002
!!!PDT:
!!!AGN: Sacred; Mass
!!!YEC: Copyright 2022 Narodowy Instytut Fryderyka Chopina (https://polishscores.org)
!!!YEM: License CC-BY-4.0 (https://creativecommons.org/licenses/by/4.0)
!!!SMS-siglum: PL-Kk
!!!SMS-shelfmark: Kk.I.7
!!!SMS-shelfwork: 045-002 M
!!!SMS-variant:
!!!SMS-altvar:
!!!NIFC-rismSourceID: 300258077
!!!NIFC-rismChildID: 300258122
!!!NIFC-islandoraID: pl-kk:1956
!!!URL-pdf-islandora: https://repozytorium.nifc.pl/islandora/object/pl-kk%3A1956/datastream/PDF/view
!!!URL-scan: https://polish.musicsources.pl/pl/lokalizacje/galeria/rekopisy/6140 @EN{Scan on Polish Music Sources Website} @PL{Skany w portalu Dziedzictwo Muzyki Polskiej w otwartym dostępie}
!!!IIIF: https://repozytorium.nifc.pl/islandora/object/pl-kk%3A1956/datastream/IIIF/view
!!!ONB-nifc: UWAGA: C (skan 0039-0040, s.73-75), A (0123-0124, s.67-69), T(0199-0200, s.63-65), B(0289-0290, s.65-67). Części Mszy: 1. Kyrie, 2. Et in terra, 3. Sanctus, 4. Agnus Dei
!!!AIN: 1 alto 1 bass 1 soprn 1 tenor
!!!key: d:dor
**kern	**text	**kern	**text	**kern	**text	**kern	**text
*part4	*part4	*part3	*part3	*part2	*part2	*part1	*part1
*staff4	*staff4	*staff3	*staff3	*staff2	*staff2	*staff1	*staff1
*ICvox	*	*ICvox	*	*ICvox	*	*ICvox	*
*Ibass	*	*Itenor	*	*Ialto	*	*Isoprn	*
*I"BASSVS.	*	*I"TENOR.	*	*I"ALTVS.	*	*I"CANTVS.	*
*I'B	*	*I'T	*	*I'A	*	*I'S	*
*clefF4	*	*clefC4	*	*clefC3	*	*clefC1	*
*	*	*mclefGv2	*	*mclefG2	*	*mclefG2	*
*k[]	*	*k[]	*	*k[]	*	*k[]	*
*d:dor	*	*d:dor	*	*d:dor	*	*d:dor	*
*M2/1	*	*M2/1	*	*M2/1	*	*M2/1	*
*met(C|)	*	*met(C|)	*	*met(C|)	*	*met(C|)	*
=1-	=1-	=1-	=1-	=1-	=1-	=1-	=1-
*xywh-#289:7183,2288,5795,653	*	*xywh-#199:7089,2347,5963,649	*	*xywh-#123:7253,2387,5950,667	*	*xywh-#39:7264,2461,5961,690	*
!LO:TX:t=P:problem=kreska pseudotaktowa	!	!	!	!LO:TX:b:t=Et in terra.	!	!LO:TX:b:t=Et in terra	!
1r	.	1.A	Et	00r	.	00r	.
1.D	Et	.	.	.	.	.	.
!	!	!LO:TX:t=P:problem=kreska pseudotaktowa	!	!	!	!	!
.	.	2F#X/	in	.	.	.	.
=2-	=2-	=2-	=2-	=2-	=2-	=2-	=2-
*	*	*2\right	*	*	*	*	*
.	.	2B-X\	ter-	.	.	.	.
!LO:TX:t=P:problem=kreska pseudotaktowa	!	!LO:TX:t=P:problem=kreska pseudotaktowa	!	!	!	!	!
2D/	in	2A\	-ra	.	.	.	.
2GG/	ter-	2.d\	pax	.	.	.	.
*2\right	*	*	*	*	*	*	*
!LO:TX:t=P:problem=kreska pseudotaktowa	!	!	!	!	!	!	!
2D\	-ra	.	.	.	.	.	.
!	!	!LO:TX:t=P:problem=kreska pseudotaktowa	!	!	!	!	!
.	.	4c\	ho-	.	.	.	.
=3-	=3-	=3-	=3-	=3-	=3-	=3-	=3-
!	!	!	!	!LO:TX:t=P:problem=kreska pseudotaktowa	!	!	!
2.G\	pax	4Bny\	-mi-	0r	.	0r	.
.	.	4c#X\	.	.	.	.	.
.	.	1d	.	.	.	.	.
!LO:TX:t=P:problem=kreska pseudotaktowa	!	!	!	!	!	!	!
4F\	ho-	.	.	.	.	.	.
2.E\	-mi-	.	.	.	.	.	.
!	!	!LO:TX:t=P:problem=kreska pseudotaktowa	!	!	!	!	!
.	.	2c#X\	-ni-	.	.	.	.
4E\	-ni-	.	.	.	.	.	.
=4-	=4-	=4-	=4-	=4-	=4-	=4-	=4-
!LO:TX:t=P:problem=kreska pseudotaktowa	!	!LO:TX:t=P:problem=kreska pseudotaktowa	!	!	!	!LO:TX:t=P:problem=kreska pseudotaktowa	!
1D	-b(us)	1d	-b(us)	2r	.	1r	.
.	.	.	.	1d	bo-	.	.
!LO:TX:t=P:problem=kreska pseudotaktowa	!	!	!	!	!	!	!
00r	.	0dr	.	.	.	1.a	Bo-
*	*	*	*	*2\right	*	*	*
!	!	!	!	!LO:TX:t=P:problem=kreska pseudotaktowa	!	!	!
.	.	.	.	2c#X\	-nae	.	.
=5-	=5-	=5-	=5-	=5-	=5-	=5-	=5-
.	.	.	.	2.f\	Vo-	.	.
!	!	!	!	!	!	!LO:TX:t=P:problem=kreska pseudotaktowa	!
.	.	.	.	.	.	2d/	-nae
!	!	!	!	!LO:TX:t=P:problem=kreska pseudotaktowa	!	!	!
.	.	.	.	4f\	-lun-	.	.
!	!	!LO:TX:t=P:problem=kreska pseudotaktowa	!	!	!	!	!
.	.	1er	.	4e\	-ta-	4g/	Vo-
.	.	.	.	4d\	.	4f/	.
!	!	!	!	!LO:TX:t=P:problem=kreska pseudotaktowa, między nutą a kropką	!	!	!
.	.	.	.	2.d\	.	4f/	-lun-
.	.	.	.	.	.	8e/L	.
!	!	!	!	!	!	!LO:TX:t=P:problem=kreska pseudotaktowa	!
.	.	.	.	.	.	8d/J	.
=6-	=6-	=6-	=6-	=6-	=6-	=6-	=6-
.	.	1A	Lau-	.	.	1e	-ta-
.	.	.	.	8c#X/L	.	.	.
.	.	.	.	8B/J	.	.	.
.	.	.	.	2c#/	.	.	.
!	!	!	!	!LO:TX:t=P:problem=kreska pseudotaktowa	!	!LO:TX:t=P:problem=kreska pseudotaktowa	!
1D	Lau-	2A\	-da-	1d	-tis	1d	-tis.
.	.	1B-X	.	.	.	.	.
=7-	=7-	=7-	=7-	=7-	=7-	=7-	=7-
2E\	-da-	.	.	2r	.	2r	.
*	*	*	*	*	*	*2\right	*
!LO:TX:t=P:problem=kreska pseudotaktowa	!	!LO:TX:t=P:problem=kreska pseudotaktowa	!	!LO:TX:t=P:problem=kreska pseudotaktowa	!	!LO:TX:t=P:problem=kreska pseudotaktowa	!
2F#X\	-m(us)	2A\	-mus	2d\	Lau-	2a\	Lau-
2G\	Te	2G/	Te	2.d\	-da-	2b-X\	-da-
2D\	be-	2F#X/	be-	.	.	2a\	-m(us)
!	!	!	!	!LO:TX:t=P:problem=kreska pseudotaktowa	!	!	!
.	.	.	.	4d\	-mus	.	.
=8-	=8-	=8-	=8-	=8-	=8-	=8-	=8-
!	!	!	!	!	!	!LO:TX:t=P:problem=kreska pseudotaktowa	!
2GG/	-ne-	2B-X\	-ne-	2d\	Te	1dd	Te
!LO:TX:t=P:problem=kreska pseudotaktowa, między nutą a kropką	!	!	!	!	!	!	!
2.D\	-di-	1A	-di.-	1f	be-	.	.
.	.	.	.	.	.	2a\	be-
4D/	-ci-	.	.	.	.	.	.
!	!	!	!	!LO:TX:t=P:problem=kreska pseudotaktowa	!	!LO:TX:t=P:problem=kreska pseudotaktowa	!
2D/	-m(us)	4G/	.	2e\	-ne-	2bn\	-ne-
!	!	!LO:TX:t=P:problem=kreska pseudotaktowa	!	!	!	!	!
.	.	4Fny/	.	.	.	.	.
=9-	=9-	=9-	=9-	=9-	=9-	=9-	=9-
!LO:TX:t=P:problem=kreska pseudotaktowa	!	!	!	!	!	!	!
1C	Te.	4.G/	.	1e	-di-	2.cc\	-di-
.	.	8A/	-ci-	.	.	.	.
.	.	2G/	-m(us)	.	.	.	.
!	!	!	!	!	!	!LO:TX:t=P:problem=kreska pseudotaktowa	!
.	.	.	.	.	.	4b\	.
!	!	!LO:TX:t=P:problem=kreska pseudotaktowa	!	!	!	!	!
0r	.	1F	Te,	2cny\	.	2.a\	-ci-
.	.	.	.	2.f	.	.	.
.	.	.	.	.	.	8g/L	.
!	!	!	!	!	!	!LO:TX:t=P:problem=kreska pseudotaktowa	!
.	.	.	.	.	.	8f/J	.
=10-	=10-	=10-	=10-	=10-	=10-	=10-	=10-
!	!	!LO:TX:t=P:problem=kreska pseudotaktowa	!	!	!	!	!
.	.	1r	.	.	.	1g	-mus
.	.	.	.	4e\	-ci-	.	.
!	!	!	!	!LO:TX:t=P:problem=kreska pseudotaktowa	!	!	!
.	.	.	.	2e\	-m(us)	.	.
!	!	!	!	!LO:TX:t=P:problem=kreska pseudotaktowa	!	!LO:TX:t=P:problem=kreska pseudotaktowa	!
2r	.	2r	.	1f	Te,	1a	Te
1Fny	a-	1A	a-	.	.	.	.
=11-	=11-	=11-	=11-	=11-	=11-	=11-	=11-
!	!	!	!	!LO:TX:t=P:problem=kreska pseudotaktowa	!	!	!
.	.	.	.	0r	.	0r	.
!LO:TX:t=P:problem=kreska pseudotaktowa	!	!LO:TX:t=P:problem=kreska pseudotaktowa	!	!	!	!	!
2G\	-do-	2Bny\	-do-	.	.	.	.
*	*	*custos:c	*	*	*	*	*
*	*	*xywh-#199:7111,2882,6042,664	*	*	*	*	*
!	!	!LO:LB:g=original	!	!	!	!	!
2.A\	-ra-	2.cny\	-ra-	.	.	.	.
8G\L	.	8B\L	.	.	.	.	.
!LO:TX:t=P:problem=kreska pseudotaktowa	!	!LO:TX:t=P:problem=kreska pseudotaktowa	!	!	!	!	!
8F\J	.	8A\J	.	.	.	.	.
*	*	*	*	*custos:e	*	*	*
!LO:LB:g=original	!	!	!	!LO:LB:g=original	!	!	!
=12-	=12-	=12-	=12-	=12-	=12-	=12-	=12-
*xywh-#289:7156,2824,5844,660	*	*	*	*xywh-#123:7284,2940,5965,674	*	*	*
!	!	!	!	!	!	!LO:TX:t=P:problem=kreska pseudotaktowa	!
2G\	.	2B\	.	2r	.	1r	.
!	!	!	!	!LO:TX:t=P:problem=kreska pseudotaktowa	!	!	!
2A\	-m(us)	2c#X\	-mus	2e\	glo-	.	.
!LO:TX:t=P:problem=kreska pseudotaktowa	!	!LO:TX:t=P:problem=kreska pseudotaktowa	!	!	!	!	!
1D	Te	1d	Te,	2.f\	-ri-	2r	.
!	!	!	!	!	!	!LO:TX:t=P:problem=kreska pseudotaktowa	!
.	.	.	.	.	.	2dd\	glo-
!	!	!	!	!LO:TX:t=P:problem=kreska pseudotaktowa	!	!	!
.	.	.	.	4d\	-fi-	.	.
=13-	=13-	=13-	=13-	=13-	=13-	=13-	=13-
!	!	!LO:TX:t=P:problem=kreska pseudotaktowa	!	!	!	!	!
1r	.	1r	.	2e\	-ca-	2cc\	-ri-
!	!	!	!	!LO:TX:t=P:problem=kreska pseudotaktowa	!	!	!
.	.	.	.	2f\	-m(us)	2a\	-fi-
!	!	!	!	!LO:TX:t=P:problem=kreska pseudotaktowa	!	!LO:TX:a:t=P:problem=♮ above	!
2r	.	2r	.	1e	Te.	2bn\	-ca-
!LO:TX:t=P:problem=kreska pseudotaktowa	!	!LO:TX:t=P:problem=kreska pseudotaktowa	!	!	!	!	!
2A\	glo-	2cny\	glo-	.	.	2cc\	-mus
=14-	=14-	=14-	=14-	=14-	=14-	=14-	=14-
!	!	!	!	!	!	!LO:TX:t=P:problem=kreska pseudotaktowa	!
2.G\	-ri-	2d\	-ri-	2r	.	1bn	Te
!	!	!LO:TX:t=P:problem=kreska pseudotaktowa	!	!LO:TX:t=P:problem=kreska pseudotaktowa	!	!	!
.	.	2e\	-fi-	2G/	glo-	.	.
4E\	-fi-	.	.	.	.	.	.
*	*	*	*	*	*	*xywh-#39:7227,3061,5961,681	*
!	!	!	!	!	!	!LO:LB:g=original	!
!	!	!	!	!	!	!LO:TX:t=P:problem=kreska pseudotaktowa	!
2.F\	-ca-	2c\	-ca-	2.A/	-ri-	1r	.
.	.	2d\	-mus	.	.	.	.
8E\L	.	.	.	4B/	-fi-	.	.
!LO:TX:t=P:problem=kreska pseudotaktowa	!	!	!	!	!	!	!
8D\J	.	.	.	.	.	.	.
=15-	=15-	=15-	=15-	=15-	=15-	=15-	=15-
2A\	.	2e,\	Te.	2.c\	-ca-	2r	.
!	!	!LO:TX:t=P:problem=kreska pseudotaktowa, między nutą a kropką	!	!	!	!	!
2F\	-m(us)	2.A/	Gra-	.	.	2.cc\	Gra-
!	!	!	!	!LO:TX:t=P:problem=kreska pseudotaktowa	!	!	!
.	.	.	.	4d\	-mus	.	.
!LO:TX:t=P:problem=kreska pseudotaktowa	!	!	!	!	!	!	!
1E	Te.	.	.	2e,\	Te.	.	.
.	.	4A/	ti-	.	.	4cc\	-ti-
!	!	!LO:TX:t=P:problem=kreska pseudotaktowa	!	!LO:TX:t=P:problem=kreska pseudotaktowa, między nutą a kropką	!	!LO:TX:t=P:problem=kreska pseudotaktowa	!
.	.	2G/	-as	2.e\	Gra-	2bn\	-as
=16-	=16-	=16-	=16-	=16-	=16-	=16-	=16-
00r	.	2.F/	a-	.	.	2.a\	a-
.	.	.	.	4e\	-ti-	.	.
!	!	!	!	!LO:TX:t=P:problem=kreska pseudotaktowa	!	!	!
.	.	.	.	2d\	-as	.	.
.	.	8E/L	.	.	.	8g/L	.
!	!	!LO:TX:t=P:problem=kreska pseudotaktowa	!	!	!	!LO:TX:t=P:problem=kreska pseudotaktowa	!
.	.	8D/J	.	.	.	8f/J	.
.	.	2E/	-gi-	2.c/	a-	2g\	.
!	!	!LO:TX:t=P:problem=kreska pseudotaktowa	!	!	!	!LO:TX:t=P:problem=kreska pseudotaktowa	!
.	.	2F#X/	-m(us)	.	.	2a\	-gi-
.	.	.	.	8B/L	.	.	.
.	.	.	.	8A/J	.	.	.
=17-	=17-	=17-	=17-	=17-	=17-	=17-	=17-
.	.	1G	Ti-	4B/	.	2.d/	-mus
.	.	.	.	4c/	.	.	.
!	!	!	!	!LO:TX:t=P:problem=kreska pseudotaktowa, między nutą a kropką	!	!	!
.	.	.	.	2.d\	.	.	.
!	!	!	!	!	!	!LO:TX:t=P:problem=kreska pseudotaktowa	!
.	.	.	.	.	.	4e/	.
!	!	!LO:TX:t=P:problem=kreska pseudotaktowa	!	!	!	!	!
.	.	1A	.	.	.	2f/	Ti-
.	.	.	.	4d\	-gi-	.	.
!	!	!	!	!LO:TX:t=P:problem=kreska pseudotaktowa	!	!	!
.	.	.	.	2c#X\	-mus	2e/	.
=18-	=18-	=18-	=18-	=18-	=18-	=18-	=18-
*	*	*	*	*lig	*	*	*
!	!	!	!	!	!	!LO:TX:t=P:problem=kreska pseudotaktowa	!
2r	.	2D,/	-bi.	1f	Ti-	1d	-bi,
1D	pro-	1A	prop-	.	.	.	.
.	.	.	.	1e	.	2r	.
!LO:TX:t=P:problem=kreska pseudotaktowa	!	!LO:TX:t=P:problem=kreska pseudotaktowa	!	!	!	!	!
2C/	-pter	2A/	-ter	.	.	1a	pro-
*	*	*	*	*Xlig	*	*	*
=19-	=19-	=19-	=19-	=19-	=19-	=19-	=19-
!	!	!	!	!LO:TX:t=P:problem=kreska pseudotaktowa	!	!	!
2.BB-X/	ma-	2Fny/	ma-	1d	-bi.	.	.
!	!	!	!	!	!	!LO:TX:t=P:problem=kreska pseudotaktowa	!
.	.	2G/	-gnam	.	.	2g\	-pter
8AA/L	.	.	.	.	.	.	.
!LO:TX:t=P:problem=kreska pseudotaktowa	!	!	!	!	!	!	!
8GG/J	.	.	.	.	.	.	.
1D	.	2.A/	glo-	2r	.	2.f/	ma-
.	.	.	.	1d	pro-	.	.
!	!	!LO:TX:t=P:problem=kreska pseudotaktowa	!	!	!	!	!
.	.	4A/	-ri-	.	.	8e/L	.
!	!	!	!	!	!	!LO:TX:t=P:problem=kreska pseudotaktowa	!
.	.	.	.	.	.	8d/J	.
=20-	=20-	=20-	=20-	=20-	=20-	=20-	=20-
!LO:TX:t=P:problem=kreska pseudotaktowa	!	!	!	!	!	!LO:TX:t=P:problem=kreska pseudotaktowa	!
1AA	-gnam	2A,/	-am	.	.	1e	.
!	!	!LO:TX:t=P:problem=kreska pseudotaktowa	!	!LO:TX:t=P:problem=kreska pseudotaktowa	!	!	!
.	.	[2A/	glo-	2c#X/	-pter	.	.
*	*	*custos:A	*	*custos:f	*	*	*
*	*	*xywh-#199:7104,3423,6006,628	*	*xywh-#123:7291,3486,5973,636	*	*	*
!	!	!LO:LB:g=original	!	!LO:LB:g=original	!	!	!
!	!	!LO:TX:a:t=P:problem=brak zakończenia ligatury	!	!	!	!	!
2.D/	glo-	4A/]	.	2.f\	ma-	2d,/	-gnam
.	.	4G/	.	.	.	.	.
!	!	!	!	!	!	!LO:TX:t=P:problem=kreska pseudotaktowa, między nutą a kropką	!
.	.	4A/	.	.	.	2.a	glo-
!LO:TX:t=P:problem=kreska pseudotaktowa	!	!LO:TX:t=P:problem=kreska pseudotaktowa	!	!	!	!	!
4D/	-ri-	4B/	.	8e\L	.	.	.
.	.	.	.	8d\J	.	.	.
=21-	=21-	=21-	=21-	=21-	=21-	=21-	=21-
1C	-am	4c\	.	2e\	.	.	.
.	.	4d\	.	.	.	4b\	.
!	!	!	!	!LO:TX:t=P:problem=kreska pseudotaktowa	!	!	!
.	.	2.e\	.	2A/	-gnam	4cc\	.
!	!	!	!	!	!	!LO:TX:t=P:problem=kreska pseudotaktowa	!
.	.	.	.	.	.	4a\	.
1BB-X	Tu-	.	.	2.f\	glo-	2.dd\	.
.	.	4d\	-ri-	.	.	.	.
!	!	!LO:TX:t=P:problem=kreska pseudotaktowa, między nutą a kropką	!	!	!	!	!
.	.	2.d\	-am	.	.	.	.
!	!	!	!	!LO:TX:t=P:problem=kreska pseudotaktowa	!	!LO:TX:t=P:problem=kreska pseudotaktowa	!
.	.	.	.	4g\	-ri-	4d/	-ri-
=22-	=22-	=22-	=22-	=22-	=22-	=22-	=22-
!LO:TX:t=P:problem=kreska pseudotaktowa	!	!	!	!	!	!	!
1AA	-am	.	.	2f\	-am	1a	-am
.	.	8c#X\L	.	.	.	.	.
.	.	8B\J	.	.	.	.	.
!	!	!LO:TX:t=P:problem=kreska pseudotaktowa	!	!LO:TX:t=P:problem=kreska pseudotaktowa	!	!	!
.	.	2c#X\	Tu-	2e\	tu-	.	.
2r	.	2d,\	-am.	2d,\	-am.	2f/	Tu-
!	!	!	!	!LO:TX:t=P:problem=kreska pseudotaktowa, między nutą a kropką	!	!LO:TX:t=P:problem=kreska pseudotaktowa	!
2.A\	Do-	2.e\	Do-	2.c#X/	Do-	2e/	-am
=23-	=23-	=23-	=23-	=23-	=23-	=23-	=23-
.	.	.	.	.	.	0r	.
4A\	-mi-	4e\	-mi-	4c#X/	-mi-	.	.
!LO:TX:t=P:problem=kreska pseudotaktowa	!	!LO:TX:t=P:problem=kreska pseudotaktowa	!	!LO:TX:t=P:problem=kreska pseudotaktowa	!	!	!
2F\	-ne	2A\	-ne	2d\	-ne	.	.
*custos:G	*	*	*	*	*	*	*
*xywh-#289:7176,3367,5788,667	*	*	*	*	*	*	*
!LO:LB:g=original	!	!	!	!LO:TX:t=P:problem=kreska pseudotaktowa	!	!	!
2G\	DE-	2B\	DE-	1e	DE-	.	.
!LO:TX:t=P:problem=kreska pseudotaktowa	!	!LO:TX:t=P:problem=kreska pseudotaktowa	!	!	!	!	!
2A\	-US	2c#X\	-US	.	.	.	.
=24-	=24-	=24-	=24-	=24-	=24-	=24-	=24-
!	!	!	!	!	!	!LO:TX:t=P:problem=kreska pseudotaktowa	!
2B-X\	Rex	2d\	Rex	4d\	-us	1r	.
.	.	.	.	2g\	Rex	.	.
2G\	coe-	4e\	coe-	.	.	.	.
!	!	!LO:TX:t=P:problem=kreska pseudotaktowa	!	!LO:TX:t=P:problem=kreska pseudotaktowa	!	!	!
.	.	[<4d\	.	4f\	coe-	.	.
*	*	*	*	*	*	*custos:a	*
*	*	*	*	*	*	*xywh-#39:7255,3561,5943,690	*
!	!	!	!	!	!	!LO:LB:g=original	!
1A	-les-	4d\]	.	1e	-les-	2r	.
.	.	8c#X\L	-le-	.	.	.	.
.	.	8B\J	.	.	.	.	.
!	!	!LO:TX:t=P:problem=kreska pseudotaktowa	!	!	!	!	!
.	.	2c#X\	.	.	.	2.a	DE-
=25-	=25-	=25-	=25-	=25-	=25-	=25-	=25-
!LO:TX:t=P:problem=kreska pseudotaktowa	!	!LO:TX:t=P:problem=kreska pseudotaktowa	!	!LO:TX:t=P:problem=kreska pseudotaktowa	!	!	!
1D	-tis	1d	-stis,	1d	-tis,	.	.
.	.	.	.	.	.	4g/	-us
!	!	!	!	!	!	!LO:TX:t=P:problem=kreska pseudotaktowa	!
.	.	.	.	.	.	2f/	Pa-
!LO:TX:t=P:problem=kreska pseudotaktowa	!	!	!	!	!	!	!
00r	.	2r	.	2r	.	2.e/	-ter
.	.	2.A/	DE-	2.cny/	De-	.	.
!	!	!	!	!	!	!LO:TX:t=P:problem=kreska pseudotaktowa	!
.	.	.	.	.	.	4cc\	O-
=26-	=26-	=26-	=26-	=26-	=26-	=26-	=26-
.	.	.	.	.	.	4a\	.
.	.	4G/	-us	4B/	-us	4b\	.
!	!	!LO:TX:t=P:problem=kreska pseudotaktowa	!	!LO:TX:t=P:problem=kreska pseudotaktowa	!	!	!
.	.	2F/	Pa-	2A/	Pa-	4cc\	.
!	!	!	!	!	!	!LO:TX:t=P:problem=kreska pseudotaktowa	!
.	.	.	.	.	.	4dd\	.
.	.	2E/	-ter	2G#X/	-ter	2.ee\	.
!	!	!LO:TX:t=P:problem=kreska pseudotaktowa	!	!LO:TX:t=P:problem=kreska pseudotaktowa	!	!	!
.	.	2cny\	o-	2A/	o-	.	.
!	!	!	!	!	!	!LO:TX:t=P:problem=kreska pseudotaktowa	!
.	.	.	.	.	.	4dd\	.
=27-	=27-	=27-	=27-	=27-	=27-	=27-	=27-
.	.	4A\	.	2.e\	-mni-	2cc\	-mni-
.	.	4B\	.	.	.	.	.
!	!	!	!	!	!	!LO:TX:t=P:problem=kreska pseudotaktowa	!
.	.	4c\	.	.	.	2cc\	-po-
!	!	!LO:TX:t=P:problem=kreska pseudotaktowa	!	!LO:TX:t=P:problem=kreska pseudotaktowa	!	!	!
.	.	4d\	.	4f\	-po-	.	.
2r	.	2.e\	.	2g,\	-tens.	2b,<\	-tens
!	!	!	!	!	!	!LO:TX:t=P:problem=kreska pseudotaktowa, między nutą a kropką	!
2.A\	Do-	.	.	2.e\	Do-	2.cc\	Do-
.	.	4d\	.	.	.	.	.
=28-	=28-	=28-	=28-	=28-	=28-	=28-	=28-
.	.	2c\	-mni-	.	.	.	.
4G\	-mi-	.	.	4e\	-mi-	4b\	-mi-
!LO:TX:t=P:problem=kreska pseudotaktowa	!	!	!	!LO:TX:t=P:problem=kreska pseudotaktowa	!	!LO:TX:t=P:problem=kreska pseudotaktowa	!
2F\	-ne	2d\	-po-	2A/	-ne	2a\	-ne
*	*	*	*	*custos:B	*	*	*
*	*	*	*	*xywh-#123:7306,4002,5912,833	*	*	*
!	!	!	!	!LO:LB:g=original	!	!	!
!	!	!LO:TX:t=P:problem=kreska pseudotaktowa	!	!	!	!	!
2E\	Fi-	1e	-tens	2B/	Fi-	2g#X\	Fi-
!LO:TX:t=P:problem=kreska pseudotaktowa	!	!	!	!LO:TX:t=P:problem=kreska pseudotaktowa	!	!LO:TX:t=P:problem=kreska pseudotaktowa	!
2AA/	-li	.	.	2c/	-li	2a\	.
!	!	!LO:LB:g=original	!	!	!	!	!
=29-	=29-	=29-	=29-	=29-	=29-	=29-	=29-
*	*	*xywh-#199:7140,3957,5985,859	*	*	*	*	*
!	!	!	!	!	!	!LO:TX:t=P:problem=kreska pseudotaktowa	!
(4D\	u-	2r	.	2.A/	U-	1f	.
4E\)	.	.	.	.	.	.	.
(4F\	-ni-	2.c\	Do-	.	.	.	.
!LO:TX:t=P:problem=kreska pseudotaktowa	!	!	!	!	!	!	!
4G\)	.	.	.	4B/	-ni-	.	.
2.A\	-ge-	.	.	2.c\	-ge-	2e,/	-li
.	.	4B\	-mi-	.	.	.	.
!	!	!LO:TX:t=P:problem=kreska pseudotaktowa	!	!	!	!LO:TX:t=P:problem=kreska pseudotaktowa, między nutą a kropką	!
.	.	2A\	-ne	.	.	2.cc\	U-
!	!	!	!	!LO:TX:t=P:problem=kreska pseudotaktowa	!	!	!
8G\L	.	.	.	4d\	.	.	.
!LO:TX:t=P:problem=kreska pseudotaktowa	!	!	!	!	!	!	!
8F\J	.	.	.	.	.	.	.
=30-	=30-	=30-	=30-	=30-	=30-	=30-	=30-
2E\	.	2G#X/	Fi-	2e\	.	.	.
.	.	.	.	.	.	4b\	-ni-
!LO:TX:t=P:problem=kreska pseudotaktowa	!	!	!	!	!	!	!
2F\	.	4A\	-li	4c\	.	1a	-ge-
!	!	!LO:TX:t=P:problem=kreska pseudotaktowa	!	!LO:TX:t=P:problem=kreska pseudotaktowa	!	!	!
.	.	[<4d\	U-	[<4f\	.	.	.
2D\	.	4d\]	.	4f\]	.	.	.
.	.	4c\	-ni-	4f\	-ni-	.	.
!LO:TX:t=P:problem=kreska pseudotaktowa	!	!	!	!LO:TX:t=P:problem=kreska pseudotaktowa	!	!LO:TX:t=P:problem=kreska pseudotaktowa	!
2E\	-ni-	4.B\	-ge-	2e\	-te	2g#X\	-ni-
!	!	!LO:TX:t=P:problem=kreska pseudotaktowa	!	!	!	!	!
.	.	8B\	-ni-	.	.	.	.
=31-	=31-	=31-	=31-	=31-	=31-	=31-	=31-
!	!	!LO:TX:t=P:problem=kreska pseudotaktowa	!	!	!	!	!
2AA,/	-te	1A	-te	1.e	JE-	2a\	-te
1A	Je-	.	.	.	.	1cc	JE-
.	.	2.e\	JE-	.	.	.	.
!LO:TX:t=P:problem=kreska pseudotaktowa	!	!	!	!LO:TX:t=P:problem=kreska pseudotaktowa	!	!LO:TX:t=P:problem=kreska pseudotaktowa	!
2E\	-su	.	.	2g\	-SU	2b\	-SU
!	!	!LO:TX:t=P:problem=kreska pseudotaktowa	!	!	!	!	!
.	.	4d\	.	.	.	.	.
=32-	=32-	=32-	=32-	=32-	=32-	=32-	=32-
*lig	*	*	*	*	*	*lig	*
1F	Chri-	2c\	.	2.f\	Chri-	1a	X-
.	.	4A\	.	.	.	.	.
!	!	!LO:TX:t=P:problem=kreska pseudotaktowa	!	!	!	!	!
.	.	[<4c\	-SU	4e\	.	.	.
!LO:TX:t=P:problem=kreska pseudotaktowa	!	!	!	!	!	!	!
1G	.	4c\]	.	4d\	.	1gny	.
.	.	8B\L	Chri-	4c\	.	.	.
.	.	8A\J	.	.	.	.	.
!	!	!LO:TX:t=P:problem=kreska pseudotaktowa	!	!LO:TX:t=P:problem=kreska pseudotaktowa	!	!	!
.	.	2B\	.	2d\	.	.	.
*Xlig	*	*	*	*	*	*Xlig	*
*custos:C	*	*	*	*	*	*	*
!LO:LB:g=original	!	!	!	!	!	!	!
=33-	=33-	=33-	=33-	=33-	=33-	=33-	=33-
*xywh-#289:7176,3930,5238,779	*	*	*	*	*	*	*
!	!	!	!	!LO:TX:t=P:problem=kreska pseudotaktowa	!	!LO:TX:t=P:problem=kreska pseudotaktowa	!
4C,/	-ste	2c,\	-ste	1c	-ste.	1e	-te
2C/	Do-	.	.	.	.	.	.
.	.	2.c\	Do-	.	.	.	.
!LO:TX:t=P:problem=kreska pseudotaktowa	!	!	!	!	!	!	!
4D/	-mi-	.	.	.	.	.	.
*	*	*	*	*	*	*xywh-#39:7227,4042,5907,790	*
!	!	!	!	!	!	!LO:LB:g=original	!
!	!	!	!	!LO:TX:t=P:problem=kreska pseudotaktowa	!	!	!
2E\	-ne	.	.	00r	.	0r	.
.	.	4B\	-mi-	.	.	.	.
!LO:TX:t=P:problem=kreska pseudotaktowa	!	!LO:TX:t=P:problem=kreska pseudotaktowa	!	!	!	!	!
2F\	De-	2A\	-ne	.	.	.	.
=34-	=34-	=34-	=34-	=34-	=34-	=34-	=34-
2C/	-us	2Gny/	DE-	.	.	.	.
!LO:TX:t=P:problem=kreska pseudotaktowa	!	!LO:TX:t=P:problem=kreska pseudotaktowa	!	!	!	!	!
2G\	A-	2C/	-(us)	.	.	.	.
2E\	-gnus	2c\	A-	.	.	1r	.
!LO:TX:t=P:problem=kreska pseudotaktowa, między nutą a kropką	!	!LO:TX:t=P:problem=kreska pseudotaktowa	!	!	!	!	!
2.F\	De-	2A\	-gn(us)	.	.	.	.
=35-	=35-	=35-	=35-	=35-	=35-	=35-	=35-
!	!	!	!	!	!	!LO:TX:t=P:problem=kreska pseudotaktowa	!
.	.	1G	De-	.	.	2r	.
8E\L	.	.	.	.	.	.	.
8D\J	.	.	.	.	.	.	.
!LO:TX:t=P:problem=kreska pseudotaktowa	!	!	!	!	!	!	!
2E\	.	.	.	.	.	2.cc\	Do-
!LO:TX:t=P:problem=kreska pseudotaktowa	!	!LO:TX:t=P:problem=kreska pseudotaktowa	!	!	!	!	!
1F	-i	1A	-i,	2r	.	.	.
.	.	.	.	.	.	4b\	-mi-
!	!	!	!	!	!	!LO:TX:t=P:problem=kreska pseudotaktowa	!
.	.	.	.	2.c	Do-	2a\	-ne
=36-	=36-	=36-	=36-	=36-	=36-	=36-	=36-
!LO:TX:t=P:problem=kreska pseudotaktowa	!	!LO:TX:t=P:problem=kreska pseudotaktowa	!	!	!	!	!
00r	.	00r	.	.	.	2g/	DE-
.	.	.	.	4d\	-mi-	.	.
!	!	!	!	!LO:TX:t=P:problem=kreska pseudotaktowa	!	!	!
.	.	.	.	2e\	-ne	4c/	-us
!	!	!	!	!	!	!LO:TX:t=P:problem=kreska pseudotaktowa	!
.	.	.	.	.	.	[<4cc\	A.-
.	.	.	.	2f\	DE-	4cc\]	.
.	.	.	.	.	.	4b\	.
!	!	!	!	!LO:TX:t=P:problem=kreska pseudotaktowa	!	!	!
.	.	.	.	2c,/	-(us)	4a\	.
!	!	!	!	!	!	!LO:TX:t=P:problem=kreska pseudotaktowa	!
.	.	.	.	.	.	4g\	.
=37-	=37-	=37-	=37-	=37-	=37-	=37-	=37-
.	.	.	.	2f\	A-	2a\	.
.	.	.	.	2e\	-gnus	4b\	-gn(us)
!	!	!	!	!	!	!LO:TX:t=P:problem=kreska pseudotaktowa	!
.	.	.	.	.	.	[<4cc\	De-
!	!	!	!	!LO:TX:t=P:problem=kreska pseudotaktowa	!	!	!
.	.	.	.	1d	De-	4cc\]	.
.	.	.	.	.	.	8b\L	.
.	.	.	.	.	.	8a\J	.
!	!	!	!	!	!	!LO:TX:t=P:problem=kreska pseudotaktowa	!
.	.	.	.	.	.	2b\	.
=38-	=38-	=38-	=38-	=38-	=38-	=38-	=38-
2r	.	2r	.	2c,\	-i	2cc,\	-i,
1F	Fi-	1c	Fi-	1f	Fi-	2.a\	Fi-
.	.	.	.	.	.	4b\	.
!LO:TX:t=P:problem=kreska pseudotaktowa	!	!	!	!	!	!	!
2F\	-li-	2A\	-li-	2f\	-li-	4cc\	.
!	!	!	!	!	!	!LO:TX:t=P:problem=kreska pseudotaktowa	!
.	.	.	.	.	.	4dd\	.
=39-	=39-	=39-	=39-	=39-	=39-	=39-	=39-
!LO:TX:t=P:problem=kreska pseudotaktowa	!	!LO:TX:t=P:problem=kreska pseudotaktowa	!	!LO:TX:t=P:problem=kreska pseudotaktowa	!	!	!
1C	-us	1G	-(us)	1e	-(us)	2.ee\	.
!	!	!	!	!	!	!LO:TX:t=P:problem=kreska pseudotaktowa	!
.	.	.	.	.	.	4cc\	-li-
*lig	*	*	*	*lig	*	*	*
1D	Pa-	2.d\	Pa-	1f	Pa-	2b\	-us
.	.	.	.	.	.	2.a\	Pa-
.	.	4c\	.	.	.	.	.
=40-	=40-	=40-	=40-	=40-	=40-	=40-	=40-
1E	.	4B\	.	1e	.	.	.
.	.	4A\	.	.	.	8g#X/L	.
!	!	!	!	!	!	!LO:SIC:v:o=8f/J	!
.	.	.	.	.	.	8f#iJ	.
!	!	!	!	!	!	!LO:TX:t=P:problem=kreska pseudotaktowa	!
.	.	2B\	.	.	.	2g#X/	.
*Xlig	*	*	*	*Xlig	*	*	*
1AAl;	-tris.	1Al;	-tris.	1c#lX;	-tris.	1al;	-tris.
*custos:F	*	*	*	*	*	*	*
!LO:PB:g=original	!	!LO:PB:g=original	!	!LO:PB:g=original	!	!LO:PB:g=original	!
=41||	=41||	=41||	=41||	=41||	=41||	=41||	=41||
*M2/1	*	*M2/1	*	*M2/1	*	*M2/1	*
*met(C|)	*	*met(C|)	*	*met(C|)	*	*met(C|)	*
*xywh-#290:1307,665,5773,739	*	*xywh-#200:1303,810,5749,785	*	*xywh-#124:1413,784,5884,839	*	*xywh-#40:1060,895,6030,739	*
00r	.	1A	Qui	1e	Qui	2r	.
!	!	!	!	!	!	!LO:TX:t=P:problem=kreska pseudotaktowa	!
.	.	.	.	.	.	2a\	Qui
!	!	!LO:TX:t=P:problem=kreska pseudotaktowa	!	!LO:TX:t=P:problem=kreska pseudotaktowa	!	!	!
.	.	1d	tol-	1f	tol-	1a	tol-
=42-	=42-	=42-	=42-	=42-	=42-	=42-	=42-
.	.	2c\	-lis	2.e\	-lis	2a\	-lis
!	!	!	!	!	!	!LO:TX:t=P:problem=kreska pseudotaktowa	!
.	.	2A\	pec-	.	.	2cc\	pec-
!	!	!	!	!LO:TX:t=P:problem=kreska pseudotaktowa	!	!	!
.	.	.	.	4c/	pec-	.	.
.	.	2G/	-ca-	4d\	-ca-	2b-X\	-ca-
.	.	.	.	4e\	-ta	.	.
!	!	!LO:TX:t=P:problem=kreska pseudotaktowa	!	!	!	!LO:TX:t=P:problem=kreska pseudotaktowa	!
.	.	2F/	-ta	2.f	mun-	2a\	-ta
=43-	=43-	=43-	=43-	=43-	=43-	=43-	=43-
!LO:TX:t=P:problem=kreska pseudotaktowa	!	!LO:TX:t=P:problem=kreska pseudotaktowa	!	!	!	!LO:TX:t=P:problem=kreska pseudotaktowa	!
1r	.	1c	mun-	.	.	1g	mun-
.	.	.	.	8e\L	.	.	.
.	.	.	.	8d\J	.	.	.
!	!	!	!	!LO:TX:t=P:problem=kreska pseudotaktowa	!	!	!
.	.	.	.	2e\	.	.	.
2r	.	2F,/	-di,	2f,\	-di	2a,\	-di
1F	Mi-	1c	mi-	1f	mi-	1a	mi-
=44-	=44-	=44-	=44-	=44-	=44-	=44-	=44-
.	.	.	.	.	.	.	.
!LO:TX:t=P:problem=kreska pseudotaktowa	!	!LO:TX:t=P:problem=kreska pseudotaktowa	!	!LO:TX:t=P:problem=kreska pseudotaktowa	!	!LO:TX:t=P:problem=kreska pseudotaktowa	!
2C/	-ſe-	2c\	-ſe-	2e\	-ſe-	2g/	-ſe-
2D\	-re-	2A/	-re-	2d\	-re-	2f/	-re-
!LO:TX:t=P:problem=kreska pseudotaktowa	!	!	!	!	!	!	!
2E\	-re	2G#X/	-re	4B/	-re	4e/	-re
!	!	!	!	!	!	!LO:TX:t=P:problem=kreska pseudotaktowa	!
.	.	.	.	2e\	no-	[<4cc\	.
=45-	=45-	=45-	=45-	=45-	=45-	=45-	=45-
1F	no-	1A	no-	.	.	4cc\]	.
.	.	.	.	8d\L	.	(4bny\	no-
.	.	.	.	8c\J	.	.	.
!	!	!	!	!	!	!LO:TX:t=P:problem=kreska pseudotaktowa, między nutą a kropką	!
.	.	.	.	2d\	.	2.a\)	.
!	!	!	!	!LO:TX:t=P:problem=kreska pseudotaktowa	!	!	!
2E,\	-bis.	2Bn,\	-bis	1e	-bis.	.	.
.	.	.	.	.	.	8g#X/L	.
!	!	!	!	!	!	!LO:SIC:v:o=8f/J	!
.	.	.	.	.	.	8f#iJ	.
!LO:TX:t=P:problem=kreska pseudotaktowa	!	!LO:TX:t=P:problem=kreska pseudotaktowa	!	!	!	!	!
2E\	qui	2B\	Qui	.	.	2g#X/	.
=46-	=46-	=46-	=46-	=46-	=46-	=46-	=46-
!	!	!	!	!	!	!LO:TX:t=P:problem=kreska pseudotaktowa	!
1A	tol-	1c	tol-	4r	.	1a	-bis.
.	.	.	.	4e\	Qui	.	.
!	!	!	!	!LO:TX:t=P:problem=kreska pseudotaktowa	!	!	!
.	.	.	.	2e\	tol-	.	.
2G,\	-lis	2.B\	-lis	2e,\	-lis	0r	.
!LO:TX:t=P:problem=kreska pseudotaktowa	!	!	!	!	!	!	!
2E\	pec-	.	.	2g\	pec-	.	.
!	!	!LO:TX:t=P:problem=kreska pseudotaktowa	!	!	!	!	!
.	.	4Gny/	pec-	.	.	.	.
=47-	=47-	=47-	=47-	=47-	=47-	=47-	=47-
2D/	-ca-	4A\	-ca-	2f\	-ca-	.	.
.	.	4B\	-ta	.	.	.	.
!	!	!	!	!LO:TX:t=P:problem=kreska pseudotaktowa	!	!	!
2C/	-ta	2.c\	mun-	2e\	-ta	.	.
!	!	!	!	!	!	!LO:TX:t=P:problem=kreska pseudotaktowa	!
1G	mun-	.	.	1d	mun-	1r	.
.	.	8B\L	.	.	.	.	.
.	.	8A\J	.	.	.	.	.
!	!	!LO:TX:t=P:problem=kreska pseudotaktowa	!	!	!	!	!
.	.	2B\	.	.	.	.	.
=48-	=48-	=48-	=48-	=48-	=48-	=48-	=48-
2C,/	-di	2c,\	-di	2e,\	-di	2r	.
!LO:TX:t=P:problem=kreska pseudotaktowa, między nutą a kropką	!	!	!	!	!	!	!
2.C/	suſ-	2.e\	Suſ-	2.g\	Suſ-	2.cc\	Suſ-
4C/	-ci-	4e\	-ci-	4g\	-ci-	4cc\	-ci-
!LO:TX:t=P:problem=kreska pseudotaktowa	!	!LO:TX:t=P:problem=kreska pseudotaktowa	!	!LO:TX:t=P:problem=kreska pseudotaktowa	!	!LO:TX:t=P:problem=kreska pseudotaktowa	!
2GG/	-pe	2d\	-pe	2g\	-pe	2b\	-pe
=49-	=49-	=49-	=49-	=49-	=49-	=49-	=49-
2AA/	de-	2c\	de-	2f\	de-	2a\	de-
!	!	!	!	!LO:TX:t=P:problem=kreska pseudotaktowa	!	!	!
!	!	!LO:TX:t=P:problem=kreska pseudotaktowa	!	!	!	!	!
2BB/	-pre-	2d\	-pre-	2d\	-pre-	4gny/	-pre-
!	!	!	!	!	!	!LO:TX:t=P:problem=kreska pseudotaktowa	!
.	.	.	.	.	.	[4g/	-ca-
*	*	*custos:c	*	*	*	*	*
*	*	*xywh-#200:1328,1470,5749,701	*	*	*	*	*
!	!	!LO:LB:g=original	!	!	!	!	!
2.C/	-ca-	2c\	ca-	2.e\	-ca-	4g/]	.
.	.	.	.	.	.	4e/	-ti-
!	!	!LO:TX:t=P:problem=kreska pseudotaktowa	!	!	!	!	!
.	.	2A\	-ti-	.	.	2.cc\	-o-
!	!	!	!	!LO:TX:t=P:problem=kreska pseudotaktowa	!	!	!
4D\	-ti-	.	.	4f\	-ti-	.	.
*	*	*	*	*custos:e	*	*	*
!	!	!	!	!LO:LB:g=original	!	!	!
=50-	=50-	=50-	=50-	=50-	=50-	=50-	=50-
*	*	*	*	*xywh-#124:1414,1510,5922,735	*	*	*
2E\	-o-	2G#X/	-o-	2.e\	-o-	.	.
.	.	.	.	.	.	4b\	-nem
!LO:TX:t=P:problem=kreska pseudotaktowa	!	!	!	!	!	!LO:TX:t=P:problem=kreska pseudotaktowa, między nutą a kropką	!
2F\	-nem	2A/	-nem	.	.	2.a\	no-
!	!	!	!	!LO:TX:t=P:problem=kreska pseudotaktowa	!	!	!
.	.	.	.	4d\	-nem	.	.
1E	no-	1B	no-	1e	no-	.	.
*	*	*	*	*	*	*custos:a	*
*	*	*	*	*	*	*xywh-#40:1035,1466,6046,705	*
!	!	!	!	!	!	!LO:LB:g=original	!
.	.	.	.	.	.	8g#X/L	.
!	!	!	!	!	!	!LO:SIC:v:o=8f/J	!
.	.	.	.	.	.	8f#iJ	.
!	!	!	!	!	!	!LO:TX:t=P:problem=kreska pseudotaktowa	!
.	.	.	.	.	.	2g#X/	.
=51-	=51-	=51-	=51-	=51-	=51-	=51-	=51-
!LO:TX:t=P:problem=kreska pseudotaktowa	!	!LO:TX:t=P:problem=kreska pseudotaktowa	!	!LO:TX:t=P:problem=kreska pseudotaktowa	!	!	!
1AA	-ſtram	1A	-ſtram.	1c#X	-ſtram	2a,\	-stram
!	!	!	!	!	!	!LO:TX:t=P:problem=kreska pseudotaktowa	!
.	.	.	.	.	.	2a\	Qui
00r	.	00r	.	2r	.	1f	se-
!	!	!	!	!LO:TX:t=P:problem=kreska pseudotaktowa	!	!	!
.	.	.	.	2d\	Qui	.	.
=52-	=52-	=52-	=52-	=52-	=52-	=52-	=52-
.	.	.	.	1cny	se-	2e/	-des
!	!	!	!	!	!	!LO:TX:t=P:problem=kreska pseudotaktowa	!
.	.	.	.	.	.	2a\	ad
.	.	.	.	2A/	-des	2.cc\	dex-
!	!	!	!	!LO:TX:t=P:problem=kreska pseudotaktowa	!	!	!
.	.	.	.	2e\	ad	.	.
!	!	!	!	!	!	!LO:TX:t=P:problem=kreska pseudotaktowa	!
.	.	.	.	.	.	4b\	-te-
=53-	=53-	=53-	=53-	=53-	=53-	=53-	=53-
.	.	.	.	2.f\	dex-	4a,\	-ram
.	.	.	.	.	.	4gny\	ad
.	.	.	.	.	.	2.a\	dex-
!	!	!	!	!LO:TX:t=P:problem=kreska pseudotaktowa	!	!	!
.	.	.	.	4e\	.	.	.
!LO:TX:t=P:problem=kreska pseudotaktowa	!	!LO:TX:t=P:problem=kreska pseudotaktowa	!	!	!	!	!
0r	.	0r	.	4d\	.	.	.
.	.	.	.	4c\	.	4a\	-te-
!	!	!	!	!LO:TX:t=P:problem=kreska pseudotaktowa, między nutą a kropką	!	!LO:TX:t=P:problem=kreska pseudotaktowa	!
.	.	.	.	2.d\	.	2b-X\	-ram
=54-	=54-	=54-	=54-	=54-	=54-	=54-	=54-
.	.	.	.	.	.	2.a\	Pa-
.	.	.	.	4e\	-te-	.	.
!	!	!	!	!LO:TX:t=P:problem=kreska pseudotaktowa	!	!	!
.	.	.	.	2f\	-ram	.	.
.	.	.	.	.	.	8g/L	.
.	.	.	.	.	.	8f/J	.
2r	.	2r	.	2e\	Pa-	2g\	.
!	!	!	!	!LO:TX:t=P:problem=kreska pseudotaktowa	!	!LO:TX:t=P:problem=kreska pseudotaktowa	!
1F	mi-	1c	mi-	2f\	-tris	2a\	-tris
=55-	=55-	=55-	=55-	=55-	=55-	=55-	=55-
.	.	.	.	2f\	mi-	2a\	mi-
!LO:TX:t=P:problem=kreska pseudotaktowa	!	!LO:TX:t=P:problem=kreska pseudotaktowa	!	!LO:TX:t=P:problem=kreska pseudotaktowa	!	!	!
2C/	-ſe-	2c\	-ſe-	2e\	-ſe-	2g\	-ſe-
2D\	-re-	2A\	-re-	2d\	-re	2f/	-re
2E\	-re	2G#X/	-re	4B/	no-	4e/	no-
!	!	!	!	!LO:TX:t=P:problem=kreska pseudotaktowa	!	!LO:TX:t=P:problem=kreska pseudotaktowa	!
.	.	.	.	[<4e\	.	[<4cc\	.
=56-	=56-	=56-	=56-	=56-	=56-	=56-	=56-
1F	no-	1A	no-	4e\]	.	4cc\]	.
.	.	.	.	8d\L	.	4bny\	.
.	.	.	.	8c\J	.	.	.
.	.	.	.	2d\	.	2.a\	.
!LO:TX:t=P:problem=kreska pseudotaktowa	!	!LO:TX:t=P:problem=kreska pseudotaktowa	!	!LO:TX:t=P:problem=kreska pseudotaktowa	!	!	!
1E,	-bis	1Bn	-bis.	1e	-bis.	.	.
.	.	.	.	.	.	8g#X/L	.
!	!	!	!	!	!	!LO:SIC:v:o=8f/J	!
.	.	.	.	.	.	8f#iJ	.
!	!	!	!	!	!	!LO:TX:t=P:problem=kreska pseudotaktowa	!
.	.	.	.	.	.	2g#/	.
!LO:LB:g=original	!	!	!	!	!	!	!
=57-	=57-	=57-	=57-	=57-	=57-	=57-	=57-
*xywh-#290:1294,1285,5719,686	*	*	*	*	*	*	*
!	!	!	!	!	!	!LO:TX:t=P:problem=kreska pseudotaktowa	!
2r	.	2r	.	0r	.	1a	-bis.
2.A\	Quo-	2.c\	Quo-	.	.	.	.
!	!	!	!	!	!	!LO:TX:t=P:problem=kreska pseudotaktowa	!
.	.	.	.	.	.	0r	.
4G\	-ni-	4B\	-ni-	.	.	.	.
!LO:TX:t=P:problem=kreska pseudotaktowa	!	!LO:TX:t=P:problem=kreska pseudotaktowa	!	!	!	!	!
2F\	-am	2d\	-am	.	.	.	.
=58-	=58-	=58-	=58-	=58-	=58-	=58-	=58-
!	!	!	!	!LO:TX:t=P:problem=kreska pseudotaktowa	!	!	!
4C/	Tu	4e\	Tu	1r	.	.	.
2D\	so-	2A/	so-	.	.	.	.
!	!	!LO:TX:t=P:problem=kreska pseudotaktowa	!	!	!	!	!
4F,\	-lus	4d\	-l(us)	.	.	.	.
2E\	San-	2c#X\	San-	2r	.	2r	.
!LO:TX:t=P:problem=kreska pseudotaktowa	!	!LO:TX:t=P:problem=kreska pseudotaktowa	!	!LO:TX:t=P:problem=kreska pseudotaktowa	!	!LO:TX:t=P:problem=kreska pseudotaktowa	!
2D\	-ct(us).	2d\	-ctus	2f\	Tu	2a\	Tu
*	*	*	*	*	*	*custos:b	*
!	!	!	!	!	!	!LO:LB:g=original	!
=59-	=59-	=59-	=59-	=59-	=59-	=59-	=59-
*	*	*	*	*	*	*xywh-#40:1068,1978,6038,764	*
!LO:TX:t=P:problem=kreska pseudotaktowa	!	!LO:TX:t=P:problem=kreska pseudotaktowa	!	!	!	!	!
1r	.	1r	.	2e\	so-	2b\	so-
.	.	.	.	4A/	-lus	4cc\	-l(us)
!	!	!	!	!	!	!LO:TX:t=P:problem=kreska pseudotaktowa	!
.	.	.	.	2d\	Do-	[4f/	Do-
2r	.	2r	.	.	.	4f/]	.
.	.	.	.	4c#X/	-mi-	4e/	-mi-
!LO:TX:t=P:problem=kreska pseudotaktowa	!	!LO:TX:t=P:problem=kreska pseudotaktowa	!	!LO:TX:t=P:problem=kreska pseudotaktowa	!	!LO:TX:t=P:problem=kreska pseudotaktowa	!
2D\	Tu	2A\	Tu	2d\	-n(us)	2d/	-n(us)
=60-	=60-	=60-	=60-	=60-	=60-	=60-	=60-
!	!	!	!	!	!	!LO:TX:t=P:problem=kreska pseudotaktowa	!
2G\	so-	2B\	so-	0r	.	0r	.
2.A\	-lus	2.cny\	-lus	.	.	.	.
4F\	al-	4A\	al-	.	.	.	.
4.E\	-tiſ-	4B\	-tiſ-	.	.	.	.
!	!	!LO:TX:t=P:problem=kreska pseudotaktowa	!	!	!	!	!
.	.	4c#X\	-si-	.	.	.	.
8E\	-si-	.	.	.	.	.	.
*	*	*custos:d	*	*	*	*	*
!	!	!LO:LB:g=original	!	!	!	!	!
=61-	=61-	=61-	=61-	=61-	=61-	=61-	=61-
*	*	*xywh-#200:1303,2013,4905,584	*	*	*	*	*
!LO:TX:t=P:problem=kreska pseudotaktowa	!	!	!	!	!	!	!
1D,	-m(us)	2d\	-mus	2r	.	2r	.
!	!	!	!	!LO:TX:t=P:problem=kreska pseudotaktowa	!	!	!
.	.	1A	Je-	2f\	Je-	1a	Je-
2C#X/	Je-	.	.	2e,\	-su	.	.
!	!	!LO:TX:t=P:problem=kreska pseudotaktowa	!	!	!	!LO:TX:t=P:problem=kreska pseudotaktowa	!
2D/	-su	2A/	-su	1d	Chri-	2f#X/	-su
=62-	=62-	=62-	=62-	=62-	=62-	=62-	=62-
1GG	X-	1Gny	Chri-	.	.	1b-X	Chri-
!	!	!	!	!LO:TX:t=P:problem=kreska pseudotaktowa	!	!	!
.	.	.	.	2d\	-ste	.	.
!	!	!	!	!LO:LB:g=original	!	!	!
!LO:TX:t=P:problem=kreska pseudotaktowa	!	!LO:TX:t=P:problem=kreska pseudotaktowa	!	!	!	!	!
*	*	*	*	*xywh-#124:1404,2057,4875,660	*	*	*
1D	-te	1F#X	-ste.	2r	.	2a,\	-ste
!	!	!	!	!LO:TX:t=P:problem=kreska pseudotaktowa	!	!LO:TX:t=P:problem=kreska pseudotaktowa	!
.	.	.	.	2d\	Cum	2dd\	Cum
=63-	=63-	=63-	=63-	=63-	=63-	=63-	=63-
!LO:TX:t=P:problem=kreska pseudotaktowa	!	!LO:TX:t=P:problem=kreska pseudotaktowa	!	!	!	!	!
1r	.	1r	.	2e\	San-	2cc\	san-
.	.	.	.	4f\	-cto	4a\	-cto
!	!	!	!	!LO:TX:t=P:problem=kreska pseudotaktowa	!	!LO:TX:t=P:problem=kreska pseudotaktowa	!
.	.	.	.	[<4d\	Spi-	[4fny/	Spi-
2r	.	2r	.	4d\]	.	4f/]	.
.	.	.	.	4cny\	-ri-	4gny/	-ri-
!LO:TX:t=P:problem=kreska pseudotaktowa	!	!LO:TX:t=P:problem=kreska pseudotaktowa	!	!LO:TX:t=P:problem=kreska pseudotaktowa	!	!LO:TX:t=P:problem=kreska pseudotaktowa	!
2D\	in	2d\	in	2f\	-tu	2a\	-tu
=64-	=64-	=64-	=64-	=64-	=64-	=64-	=64-
!	!	!	!	!	!	!LO:TX:t=P:problem=kreska pseudotaktowa	!
4.E\	glo-	4.cny\	glo-	1r	.	1r	.
8E\	-ri-	8c\	-ri-	.	.	.	.
4F\	-a	4A/	-a	.	.	.	.
!	!	!LO:TX:t=P:problem=kreska pseudotaktowa	!	!	!	!	!
2D\	De-	[4Fny/	De-	.	.	.	.
.	.	4F/]	.	2r	.	2r	.
4Cny/	-i	4G/	-i	.	.	.	.
!LO:TX:t=P:problem=kreska pseudotaktowa	!	!LO:TX:t=P:problem=kreska pseudotaktowa	!	!LO:TX:t=P:problem=kreska pseudotaktowa	!	!	!
2F\	Pa-	2A/	Pa-	2f\	in	1cc	in
=65-	=65-	=65-	=65-	=65-	=65-	=65-	=65-
2C/	-tris	2G/	-tris	4.e\	glo-	.	.
.	.	.	.	8e\	-ri-	.	.
!LO:TX:t=P:problem=kreska pseudotaktowa	!	!LO:TX:t=P:problem=kreska pseudotaktowa	!	!LO:TX:t=P:problem=kreska pseudotaktowa	!	!	!
2r	.	2r	.	2f\	-a	4.a\	glo-
!	!	!	!	!	!	!LO:TX:t=P:problem=kreska pseudotaktowa	!
.	.	.	.	.	.	8a\	-ri-
!	!	!LO:N:vis=0	!	!	!	!	!
!LO:TX:t=P:problem=kreska pseudotaktowa	!	!LO:TX:t=P:problem=kreska pseudotaktowa	!	!	!	!	!
1r	.	1r	.	4d\	De-	4bny\	-a
*	*	*	*	*	*	*2\left	*
.	.	.	.	4e\	-i	2cc\	De-
!	!	!	!	!LO:TX:t=P:problem=kreska pseudotaktowa	!	!	!
.	.	.	.	2f\	Pa-	.	.
!	!	!	!	!	!	!LO:TX:t=P:problem=kreska pseudotaktowa	!
.	.	.	.	.	.	4a\	-i
!LO:LB:g=original	!	!	!	!	!	!	!
=66-	=66-	=66-	=66-	=66-	=66-	=66-	=66-
*xywh-#290:1307,1838,2779,573	*	*	*	*	*	*2\right	*
2r	.	4r	.	2e\	-tris	2g\	Pa-
.	.	2c\	A-	.	.	.	.
!LO:TX:t=P:problem=kreska pseudotaktowa, między nutą a kropką	!	!	!	!	!	!LO:TX:t=P:problem=kreska pseudotaktowa	!
2.F\	A-	.	.	2.A/	A-	2a\	-tris
!	!	!LO:TX:t=P:problem=kreska pseudotaktowa	!	!	!	!	!
.	.	4Bn\	.	.	.	.	.
.	.	4A/	.	.	.	2.cc\	A-
4G\	.	4G/	.	4B/	.	.	.
4A\	.	4F/	.	1c	.	.	.
!LO:TX:t=P:problem=kreska pseudotaktowa	!	!	!	!	!	!	!
4G\	.	4G/	.	.	.	4b\	.
=67-	=67-	=67-	=67-	=67-	=67-	=67-	=67-
!	!	!LO:TX:t=P:problem=kreska pseudotaktowa	!	!	!	!	!
4F\	.	0A	.	.	.	4a\	.
4E\	.	.	.	.	.	4g\	.
!	!	!	!	!LO:TX:t=P:problem=kreska pseudotaktowa, między nutą a kropką	!	!	!
4D/	.	.	.	2.d\	.	4f/	.
8C/L	.	.	.	.	.	8e/L	.
!LO:TX:t=P:problem=kreska pseudotaktowa	!	!	!	!	!	!	!
8BB-X/J	.	.	.	.	.	8d/J	.
4AA/	.	.	.	.	.	1e	.
4GG/	.	.	.	8c#X/L	.	.	.
.	.	.	.	8B/J	.	.	.
!LO:TX:t=P:problem=kreska pseudotaktowa	!	!	!	!LO:TX:t=P:problem=kreska pseudotaktowa	!	!	!
2AA/	.	.	.	2c#X/	.	.	.
=68-	=68-	=68-	=68-	=68-	=68-	=68-	=68-
0Dl;	-men	0Al;	-men	0dl;	-men.	0f#lX;	-men.
==	==	==	==	==	==	==	==
*-	*-	*-	*-	*-	*-	*-	*-
!!!system-decoration: [*]
!!!RDF**kern: < = below
!!!RDF**kern: l = terminal long
!!!ENC: Andrzej Gręziak
!!!END: 2021-02-26
!!!EED: Andrzej Kubiczek
!!!EEV: 2021-03-16
!!!ENC-iiif: Konrad Tyszka
!!!END-iiif: 2022-09-02
